X:1
T: The Hag with the Money
C:
R:Jig
Q:180
K:D
M:6/8
L:1/16
A2d2d2 A2c2A2|G2E2F2G4E2|D2d2d2 ABc2A2|G2E2F2 G2E2D2|A2d2B2c4A2|G2E2F2G4E2|D2F2A2 =c2B2A2|B2G2E2 G2E2D2|
A2d2d2 A2c2A2|G2E2F2G4E2|D2d2d2 ABc2A2|G2E2F2 G2E2D2|A2d2B2c4A2|G2E2F2G4E2|D2F2A2 =c2B2A2|B2G2E2 G2E2D2|
A2d2c2d4e2|f2e2c2d4c2A2|d2c2d4e2|f2d2f2 e2c2A2|A2d2c2d4e2|fga2f2 e2c2A2|A2G2E2 c2B2A2|B2G2E2 G2E2D2|
A2d2c2d4e2|f2e2c2d4c2A2|d2c2d4e2|f2d2f2 e2c2A2|A2d2c2d4e2|fga2f2 e2c2A2|A2G2E2 c2B2A2|B2G2E2 G2E2D2||
